!!!COM: Music21
!!!OTL: polka_Flanigans
!!!OMV: polka_Flanigans
**kern
*clefG2
*k[]
*M2/4
=1
16ggLL
16ff#X
16ffnJJ
=||
8eeL
[8gJ
4ryy
=
16gLL]
16cc
16b
16ccJJ
4ryy
=
8ddL
[8aJ
4ryy
=
16aLL]
16cc
16b
16ccJJ
4ryy
=
8aaL
[8bJ
4ryy
=
16bLL]
16gg
16ff#X
16ggJJ
4ryy
=
8cccL
8eeJ
4ryy
=
[4gg
4ryy
!!linebreak:original
=
16ggLL]
16gg
16ff#X
16ffnJJ
4ryy
=
8eeL
[8gJ
4ryy
=
16gLL]
16cc
16b
16ccJJ
4ryy
=
8ddL
[8aJ
4ryy
=
16aLL]
16cc
16b
16ccJJ
4ryy
=
8.aaL
16ggJk
4ryy
=
16.ffLL
32ffK
16a
16bJJ
4ryy
=
[4cc
4ryy
!!linebreak:original
=
16ccLL]
16gg
16ff#X
16ffnJJ
4ryy
=||
8eeL
[8gJ
4ryy
=
16gLL]
16cc
16b
16ccJJ
4ryy
=
8ddL
[8aJ
4ryy
=
16aLL]
16cc
16b
16ccJJ
4ryy
=
8aaL
[8bJ
4ryy
=
16bLL]
16gg
16ff#X
16ggJJ
4ryy
=
8cccL
8eeJ
4ryy
=
[4gg
4ryy
!!linebreak:original
=
16ggLL]
16gg
16ff#X
16ffnJJ
4ryy
=
8eeL
[8gJ
4ryy
=
16gLL]
16cc
16b
16ccJJ
4ryy
=
8ddL
[8aJ
4ryy
=
16aLL]
16cc
16b
16ccJJ
4ryy
=
8.aaL
16ggJk
4ryy
=
16.ffLL
32ffK
16a
16bJJ
4ryy
=
8ccL
16bL
16aJJ
4ryy
!!linebreak:original
=
16gLL
16f
16e
16dJJ
4ryy
=||
[4c
4ryy
=
8cL]
16bL
16ccJJ
4ryy
=
16ddLL
16dd
16b
16ddJJ
4ryy
=
16ggLL
16aa
16gg
16eeJJ
4ryy
=
16ddLL
16ee
16dd
16bJJ
4ryy
=
8gL
16bL
16ddJJ
4ryy
=
16ccLL
16b
16a
16f#XJJ
4ryy
!!linebreak:original
=
8dL
16f#XL
16aJJ
4ryy
=
16eeLL
16dd
16dd
16cc#XJJ
4ryy
=
8ddL
16bL
16ccJJ
4ryy
=
16ddLL
16dd
16b
16ddJJ
4ryy
=
16ggLL
16aa
16gg
16eeJJ
4ryy
=
16ddLL
16ee
16dd
16bJJ
4ryy
=
8gL
16bL
16ddJJ
4ryy
=
16ccLL
16b
16a
16f#XJJ
4ryy
!!linebreak:original
=
16dLL
16f#X
16a
16f#JJ
4ryy
=
8gL
8bJ
4ryy
=
8gL
16bL
16ccJJ
4ryy
=||
*M2/4
16ggLL
16ff#X
16ffnJJ
=||
8eeL
[8gJ
4ryy
=
16gLL]
16cc
16b
16ccJJ
4ryy
=
8ddL
[8aJ
4ryy
=
16aLL]
16cc
16b
16ccJJ
4ryy
!!linebreak:original
=
8aaL
[8bJ
4ryy
=
16bLL]
16gg
16ff#X
16ggJJ
4ryy
=
8cccL
8eeJ
4ryy
=
[4gg
4ryy
=
16ggLL]
16gg
16ff#X
16ffnJJ
4ryy
=
8eeL
[8gJ
4ryy
=
16gLL]
16cc
16b
16ccJJ
4ryy
=
8ddL
[8aJ
4ryy
=
16aLL]
16cc
16b
16ccJJ
4ryy
!!linebreak:original
=
8.aaL
16ggJk
4ryy
=
16.ffLL
32ffK
16a
16bJJ
4ryy
=
[4cc
4ryy
=
16ccLL]
16gg
16ff#X
16ffnJJ
4ryy
=||
8eeL
[8gJ
4ryy
=
16gLL]
16cc
16b
16ccJJ
4ryy
=
8ddL
[8aJ
4ryy
=
16aLL]
16cc
16b
16ccJJ
4ryy
=
8aaL
[8bJ
4ryy
!!linebreak:original
=
16bLL]
16gg
16ff#X
16ggJJ
4ryy
=
8cccL
8eeJ
4ryy
=
[4gg
4ryy
=
16ggLL]
16gg
16ff#X
16ffnJJ
4ryy
=
8eeL
[8gJ
4ryy
=
16gLL]
16cc
16b
16ccJJ
4ryy
=
8ddL
[8aJ
4ryy
=
16aLL]
16cc
16b
16ccJJ
4ryy
=
8.aaL
16ggJk
4ryy
!!pagebreak:original
=
16.ffLL
32ffK
16a
16bJJ
4ryy
=
8ccL
16bL
16aJJ
4ryy
=
16gLL
16f
16e
16dJJ
4ryy
=||
[4c
4ryy
=
8cL]
16bL
16ccJJ
4ryy
=
16ddLL
16dd
16b
16ddJJ
4ryy
=
16ggLL
16aa
16gg
16eeJJ
4ryy
=
16ddLL
16ee
16dd
16bJJ
4ryy
=
8gL
16bL
16ddJJ
4ryy
!!linebreak:original
=
16ccLL
16b
16a
16f#XJJ
4ryy
=
8dL
16f#XL
16aJJ
4ryy
=
16eeLL
16dd
16dd
16cc#XJJ
4ryy
=
8ddL
16bL
16ccJJ
4ryy
=
16ddLL
16dd
16b
16ddJJ
4ryy
=
16ggLL
16aa
16gg
16eeJJ
4ryy
=
16ddLL
16ee
16dd
16bJJ
4ryy
=
8gL
16bL
16ddJJ
4ryy
!!linebreak:original
=
16ccLL
16b
16a
16f#XJJ
4ryy
=
16dLL
16f#X
16a
16f#JJ
4ryy
=
8gL
8bJ
4ryy
=
16g
4..ryy
=||
*-
